X:01
T:God Save the King. TJD.01
M:3/4
L:1/4
Q:1/4=120
S:T.J.Dixon MS1,Lincolnshire 1798
R:Air
A:Lincolnshire, Holton le Moor
Z:vmp.[CGP1]R.Greig 2010
K:D
dde|{d}”tr”c>de|ffg|”tr”f>ed|e{d}c>d|d2::aaa|a>gf|!
ggg|”tr”g>fe|fg/f/e/d/|”tr”f>ga|bf<e{d}|d3:|

